Numix-GalliumOS/64/mimetypes/application-x-tar.svg

<svg xmlns="http://www.w3.org/2000/svg" xmlns:xlink="http://www.w3.org/1999/xlink" width="64px" height="64px" viewBox="0 0 64 64" version="1.1">
<g id="surface1">
<path style=" stroke:none;fill-rule:nonzero;fill:rgb(75.686275%,58.431373%,32.54902%);fill-opacity:1;" d="M 10.671875 0 C 9.296875 0 8 1.355469 8 2.789062 L 8 61.210938 C 8 62.566406 9.375 64 10.671875 64 L 53.328125 64 C 54.625 64 56 62.566406 56 61.210938 L 56 18 L 38 0 Z M 10.671875 0 "/>
<path style=" stroke:none;fill-rule:nonzero;fill:rgb(0%,0%,0%);fill-opacity:0.196078;" d="M 8 48 L 8 61.335938 C 8 62.632812 9.375 64 10.664062 64 L 53.335938 64 C 54.625 64 56 62.632812 56 61.335938 L 56 48 Z M 8 48 "/>
<path style=" stroke:none;fill-rule:nonzero;fill:rgb(0%,0%,0%);fill-opacity:0.196078;" d="M 42 18 L 56 32 L 56 18 Z M 42 18 "/>
<path style=" stroke:none;fill-rule:nonzero;fill:rgb(100%,100%,100%);fill-opacity:0.392157;" d="M 38 0 L 55.984375 18 L 40.757812 18 C 39.410156 18 38 16.574219 38 15.226562 Z M 38 0 "/>
<path style=" stroke:none;fill-rule:evenodd;fill:rgb(97.647059%,97.647059%,97.647059%);fill-opacity:1;" d="M 18 0 L 24 0 L 24 6 L 18 6 Z M 18 0 "/>
<path style=" stroke:none;fill-rule:evenodd;fill:rgb(97.647059%,97.647059%,97.647059%);fill-opacity:1;" d="M 24 6 L 30 6 L 30 12 L 24 12 Z M 24 6 "/>
<path style=" stroke:none;fill-rule:evenodd;fill:rgb(97.647059%,97.647059%,97.647059%);fill-opacity:1;" d="M 18 12 L 24 12 L 24 18 L 18 18 Z M 18 12 "/>
<path style=" stroke:none;fill-rule:evenodd;fill:rgb(97.647059%,97.647059%,97.647059%);fill-opacity:1;" d="M 24 18 L 30 18 L 30 24 L 24 24 Z M 24 18 "/>
<path style=" stroke:none;fill-rule:evenodd;fill:rgb(97.647059%,97.647059%,97.647059%);fill-opacity:1;" d="M 18 24 L 24 24 L 24 30 L 18 30 Z M 18 24 "/>
<path style=" stroke:none;fill-rule:evenodd;fill:rgb(97.647059%,97.647059%,97.647059%);fill-opacity:1;" d="M 18 32 L 30 32 L 30 44 L 18 44 Z M 18 32 "/>
<path style=" stroke:none;fill-rule:nonzero;fill:rgb(100%,100%,100%);fill-opacity:1;" d="M 26.617188 50.925781 L 26.617188 52.746094 L 23.492188 52.746094 L 23.492188 62 L 21.121094 62 L 21.121094 52.746094 L 18.003906 52.746094 L 18.003906 50.925781 L 26.617188 50.925781 "/>
<path style=" stroke:none;fill-rule:nonzero;fill:rgb(100%,100%,100%);fill-opacity:1;" d="M 33.960938 62 L 33.402344 59.441406 L 30.253906 59.441406 L 29.710938 62 L 27.265625 62 C 27.824219 59.816406 28.390625 57.832031 28.964844 56.042969 C 29.539062 54.242188 30.097656 52.535156 30.628906 50.925781 L 33.195312 50.925781 C 33.753906 52.550781 34.3125 54.273438 34.855469 56.09375 C 35.421875 57.90625 35.960938 59.875 36.488281 62 L 33.960938 62 M 31.851562 53.074219 C 31.730469 53.492188 31.605469 53.886719 31.492188 54.273438 C 31.390625 54.640625 31.285156 55.011719 31.1875 55.378906 C 31.097656 55.742188 31.007812 56.101562 30.917969 56.472656 C 30.84375 56.839844 30.761719 57.226562 30.6875 57.621094 L 33 57.621094 C 32.925781 57.226562 32.851562 56.839844 32.769531 56.472656 C 32.695312 56.101562 32.605469 55.742188 32.507812 55.378906 C 32.417969 55.011719 32.3125 54.640625 32.195312 54.273438 C 32.097656 53.886719 31.984375 53.492188 31.851562 53.074219 "/>
<path style=" stroke:none;fill-rule:nonzero;fill:rgb(100%,100%,100%);fill-opacity:1;" d="M 40.75 50.804688 C 41.425781 50.804688 42.03125 50.867188 42.582031 51.015625 C 43.128906 51.15625 43.605469 51.378906 44 51.679688 C 44.394531 51.976562 44.695312 52.355469 44.894531 52.820312 C 45.117188 53.273438 45.222656 53.8125 45.222656 54.429688 C 45.222656 55.078125 45.082031 55.660156 44.804688 56.183594 C 44.523438 56.710938 44.058594 57.109375 43.410156 57.382812 C 43.621094 57.695312 43.851562 58.039062 44.097656 58.421875 C 44.335938 58.792969 44.574219 59.1875 44.804688 59.605469 C 45.035156 60.007812 45.246094 60.417969 45.453125 60.835938 C 45.664062 61.246094 45.855469 61.632812 46.007812 62 L 43.539062 62 C 43.246094 61.285156 42.902344 60.597656 42.507812 59.941406 C 42.121094 59.277344 41.710938 58.605469 41.261719 57.921875 L 40.039062 57.921875 L 40.039062 62 L 37.683594 62 L 37.683594 51.089844 C 37.914062 51.042969 38.167969 51 38.429688 50.960938 C 38.71875 50.910156 38.996094 50.886719 39.273438 50.867188 C 39.554688 50.84375 39.824219 50.828125 40.078125 50.820312 C 40.332031 50.804688 40.554688 50.804688 40.75 50.804688 M 42.835938 54.414062 C 42.835938 53.832031 42.636719 53.402344 42.261719 53.125 C 41.875 52.855469 41.375 52.714844 40.75 52.714844 C 40.660156 52.714844 40.546875 52.722656 40.421875 52.730469 C 40.292969 52.730469 40.167969 52.746094 40.039062 52.773438 L 40.039062 56.09375 L 40.554688 56.09375 C 41.359375 56.09375 41.941406 55.953125 42.292969 55.667969 C 42.65625 55.371094 42.835938 54.953125 42.835938 54.414062 "/>
</g>
</svg>

<svg xmlns="http://www.w3.org/2000/svg" viewBox="0 0 64 64">
 <g>
  <path d="m 10.672 0 c -1.375 0 -2.672 1.355 -2.672 2.789 l 0 58.42 c 0 1.355 1.375 2.789 2.672 2.789 l 42.656 0 c 1.297 0 2.672 -1.434 2.672 -2.789 l 0 -43.21 l -18 -18 m -27.328 0" style="fill:#c19553;fill-opacity:1;stroke:none;fill-rule:nonzero"/>
  <path d="m 8 48 l 0 13.336 c 0 1.297 1.375 2.664 2.664 2.664 l 42.672 0 c 1.289 0 2.664 -1.367 2.664 -2.664 l 0 -13.336 m -48 0" style="fill:#000;fill-opacity:0.196;stroke:none;fill-rule:nonzero"/>
  <path d="m 42 18 l 14 14 l 0 -14 m -14 0" style="fill:#000;fill-opacity:0.196;stroke:none;fill-rule:nonzero"/>
  <path d="m 38 0 l 17.984 18 l -15.227 0 c -1.348 0 -2.758 -1.426 -2.758 -2.773 m 0 -15.227" style="fill:#fff;fill-opacity:0.392;stroke:none;fill-rule:nonzero"/>
  <path d="m 18 0 l 6 0 l 0 6 l -6 0 m 0 -6" style="fill:#f9f9f9;fill-opacity:1;stroke:none;fill-rule:evenodd"/>
  <path d="m 24 6 l 6 0 l 0 6 l -6 0 m 0 -6" style="fill:#f9f9f9;fill-opacity:1;stroke:none;fill-rule:evenodd"/>
  <path d="m 18 12 l 6 0 l 0 6 l -6 0 m 0 -6" style="fill:#f9f9f9;fill-opacity:1;stroke:none;fill-rule:evenodd"/>
  <path d="m 24 18 l 6 0 l 0 6 l -6 0 m 0 -6" style="fill:#f9f9f9;fill-opacity:1;stroke:none;fill-rule:evenodd"/>
  <path d="m 18 24 l 6 0 l 0 6 l -6 0 m 0 -6" style="fill:#f9f9f9;fill-opacity:1;stroke:none;fill-rule:evenodd"/>
  <path d="m 18 32 l 12 0 l 0 12 l -12 0 m 0 -12" style="fill:#f9f9f9;fill-opacity:1;stroke:none;fill-rule:evenodd"/>
  <path d="m 26.617 50.926 l 0 1.82 l -3.125 0 l 0 9.254 l -2.371 0 l 0 -9.254 l -3.117 0 l 0 -1.82 l 8.613 0" style="fill:#fff;fill-opacity:1;stroke:none;fill-rule:nonzero"/>
  <path d="m 33.961 62 l -0.559 -2.559 l -3.148 0 l -0.543 2.559 l -2.445 0 c 0.559 -2.184 1.125 -4.168 1.699 -5.957 c 0.574 -1.801 1.133 -3.508 1.664 -5.117 l 2.566 0 c 0.559 1.625 1.117 3.348 1.66 5.168 c 0.566 1.813 1.105 3.781 1.633 5.906 l -2.527 0 m -2.109 -8.926 c -0.121 0.418 -0.246 0.813 -0.359 1.199 c -0.102 0.367 -0.207 0.738 -0.305 1.105 c -0.09 0.363 -0.18 0.723 -0.27 1.094 c -0.074 0.367 -0.156 0.754 -0.23 1.148 l 2.313 0 c -0.074 -0.395 -0.148 -0.781 -0.23 -1.148 c -0.074 -0.371 -0.164 -0.73 -0.262 -1.094 c -0.09 -0.367 -0.195 -0.738 -0.313 -1.105 c -0.098 -0.387 -0.211 -0.781 -0.344 -1.199" style="fill:#fff;fill-opacity:1;stroke:none;fill-rule:nonzero"/>
  <path d="m 40.75 50.805 c 0.676 0 1.281 0.063 1.832 0.211 c 0.547 0.141 1.023 0.363 1.418 0.664 c 0.395 0.297 0.695 0.676 0.895 1.141 c 0.223 0.453 0.328 0.992 0.328 1.609 c 0 0.648 -0.141 1.23 -0.418 1.754 c -0.281 0.527 -0.746 0.926 -1.395 1.199 c 0.211 0.313 0.441 0.656 0.688 1.039 c 0.238 0.371 0.477 0.766 0.707 1.184 c 0.23 0.402 0.441 0.813 0.648 1.23 c 0.211 0.41 0.402 0.797 0.555 1.164 l -2.469 0 c -0.293 -0.715 -0.637 -1.402 -1.031 -2.059 c -0.387 -0.664 -0.797 -1.336 -1.246 -2.02 l -1.223 0 l 0 4.078 l -2.355 0 l 0 -10.91 c 0.23 -0.047 0.484 -0.09 0.746 -0.129 c 0.289 -0.051 0.566 -0.074 0.844 -0.094 c 0.281 -0.023 0.551 -0.039 0.805 -0.047 c 0.254 -0.016 0.477 -0.016 0.672 -0.016 m 2.086 3.609 c 0 -0.582 -0.199 -1.012 -0.574 -1.289 c -0.387 -0.27 -0.887 -0.41 -1.512 -0.41 c -0.09 0 -0.203 0.008 -0.328 0.016 c -0.129 0 -0.254 0.016 -0.383 0.043 l 0 3.32 l 0.516 0 c 0.805 0 1.387 -0.141 1.738 -0.426 c 0.363 -0.297 0.543 -0.715 0.543 -1.254" style="fill:#fff;fill-opacity:1;stroke:none;fill-rule:nonzero"/>
 </g>
</svg>
